X: 31034
T: Paddy Carey
R: jig
M: 6/8
K: Cmajor
G|G2c cBc|e2c cBc|A2d d2e|f2d BAG|
G2c cBc|e2c c2c|BAG GAB|c2e dc2|
c2e f2a|g2a gec|c2e f2a|gec d3|
c2e f2a|g2a gec|cBc edc|BAB c2||
G|cGe cGe|c3 c2c|BAG GAB|c2d e2G|
cGe cGe|c3 c2c|BAG GAB|c3 c2||

